X: 152
T: He Lies Over There
C: Teton Sioux band 1911-1914
N: Derived from sioux148.krn
O: South Dakota, U.S.A.
N: Teton Sioux Music by Frances Densmore, 1918
Z: transcribed to **kern format by Craig Sapp
L: 1/8
M: 2/4
Q: 1/4=58
K: A clef=treble
%%linebreak <none>
F2F2 [I:setbarnb 1]||  
[M:3/4]c2c2(3d c B- ||  
[M:2/4]B2A F | 
A2F3/ F/ | 
F4- | 
F7/F/ | 
A> AA2 | 
A2B A ||  
[M:3/4]A> FA2F2 ||  
[M:2/4]C4 | 
C E/ D/C2- | 
C2B,/ B,3/ | 
B, G,B,2 | 
G,4- | 
G,4 | 
G,7/C/ | 
F> F F3/ F/ | 
c2c2 | 
(c/ B/) B (A/ F/) F | 
(A> F)F2 | 
F3F | 
A> AA2 | 
A2B/ A/ A ||  
[M:3/4](A/> F/) F (A> F) (F3/ C/) | 
C2C> CC2 ||  
[M:2/4](3:2:4C- C E/ D/C2 | 
C B,B,2 | 
B, G,B,2 | 
G,4- | 
G,4 |]  



